assets/arrow-right.svg

<svg width="8" height="12" viewBox="0 0 8 12" fill="none" xmlns="http://www.w3.org/2000/svg">
<path fill-rule="evenodd" clip-rule="evenodd" d="M4.5 6L0.707106 2.20711C0.316582 1.81658 0.316582 1.18342 0.707107 0.792893L0.792893 0.707107C1.18342 0.316583 1.81658 0.316583 2.20711 0.707107L6.79289 5.29289C7.18342 5.68342 7.18342 6.31658 6.79289 6.70711L2.20711 11.2929C1.81658 11.6834 1.18342 11.6834 0.792893 11.2929L0.707107 11.2071C0.316583 10.8166 0.316583 10.1834 0.707107 9.79289L4.5 6Z" fill="#FF3E79"/>
</svg>

<svg width="8" height="12" fill="none" xmlns="http://www.w3.org/2000/svg"><path fill-rule="evenodd" clip-rule="evenodd" d="M4.5 6 .707 2.207a1 1 0 0 1 0-1.414L.793.707a1 1 0 0 1 1.414 0l4.586 4.586a1 1 0 0 1 0 1.414l-4.586 4.586a1 1 0 0 1-1.414 0l-.086-.086a1 1 0 0 1 0-1.414L4.5 6Z" fill="#FF3E79"/></svg>
